X:1
N: Neidpath Castle              PLAY 1  2  1
N: 3 x 32S 3C (RSCDS Book 22)
T: Dr. and Mrs. Green
R: strathspey
C: K. Macaulay-Jones
C: arr. T. Traub 10-1-1996
M: 4/4
L: 1/8
%
K: C
G|"C"c2 e>c "C/E"G<Ec>G|"F"A>GF>E "G"D>C B,<G,|"C"c2 e>c "C/E"G<Ec>G|"Dm"(3AGF "F"(3fed "G"(3Bcd "G7"(3GAB|"C"c2 e>c "C/E"G<Ec>G|
"Dm"F>ED>C "G"B,<AG>F|"C"E>Gc>B "F"A<Ff>d|"G"(3Bcd G>f "C"e<c c|| e|"Am"a2 e>c "Dm"f>d "E7"B<^G|"Am"e2 c>A "E7"d/c/B/A/ ^G>e|
"Am"a>ba>e "Dm"f>d A<f|"Am"(3edc "E7"c>B "Am"A2 "G7"G2|"C"c2 e>c "C/E"G<Ec>G|"F"A>B"D7"c>d "G7"(3Bcd (3def|"C"e<e"C/E"g>e "F"a>f d<c|"G"(3Bcd G>B "C"c |]
